src/pos-icons/skip-backward.svg

<svg height="24" viewBox="0 0 24 24" width="24" xmlns="http://www.w3.org/2000/svg"><path d="m20 5v14l-7-7m-7-7v14h-2v-14m9 0v14l-7-7"/></svg>

<?xml version="1.0" encoding="UTF-8"?><!DOCTYPE svg PUBLIC "-//W3C//DTD SVG 1.1//EN" "http://www.w3.org/Graphics/SVG/1.1/DTD/svg11.dtd"><svg xmlns="http://www.w3.org/2000/svg" xmlns:xlink="http://www.w3.org/1999/xlink" version="1.1" id="mdi-skip-backward" width="24" height="24" viewBox="0 0 24 24"><path d="M20,5V19L13,12M6,5V19H4V5M13,5V19L6,12" /></svg>
